img/headerServices/7.svg

<svg width="46" height="46" viewBox="0 0 46 46" fill="none" xmlns="http://www.w3.org/2000/svg">
<path d="M44.5332 28.83H43.413V22.8159C43.413 22.1437 43.1826 21.5517 42.7282 21.0566L39.2698 17.2878C38.7638 16.7365 38.1008 16.445 37.3525 16.445H37.1253L35.9146 15.2344C35.6493 14.9692 35.3109 14.8291 34.936 14.8291H29.1986V10.3126C29.1986 9.51994 28.5536 8.875 27.7609 8.875H3.41393C3.17126 8.875 2.97447 9.07179 2.97447 9.31445C2.97447 9.55712 3.17126 9.75391 3.41393 9.75391H27.7609C28.069 9.75391 28.3197 10.0046 28.3197 10.3126V27.4697H27.7014V12.3927C27.7014 12.1501 27.5046 11.9533 27.2619 11.9533H20.5617C20.3191 11.9533 20.1223 12.1501 20.1223 12.3927V14.0693H13.8616C13.6189 14.0693 13.4221 14.2661 13.4221 14.5088V20.7695H7.16141C6.91874 20.7695 6.72195 20.9663 6.72195 21.209V27.4697H3.97581V20.5655C3.97581 20.3228 3.77902 20.1261 3.53636 20.1261C3.29369 20.1261 3.0969 20.3228 3.0969 20.5655V33.262C3.0969 33.5047 3.29369 33.7015 3.53636 33.7015H7.06684C7.28577 35.6253 8.92273 37.1251 10.9041 37.1251C12.8855 37.1251 14.5225 35.6253 14.7414 33.7015H31.481C31.6999 35.6252 33.3369 37.1251 35.3183 37.1251C37.2997 37.1251 38.9367 35.6253 39.1556 33.7015H43.1192C44.1412 33.7015 44.9727 32.87 44.9727 31.8479V29.2696C44.9727 29.0269 44.776 28.8301 44.5333 28.8301L44.5332 28.83ZM42.5341 27.9255H41.4474V26.5273H42.5341V27.9255ZM42.5297 22.7114H33.3582V19.011H39.6583L42.0806 21.6507C42.3618 21.9571 42.5082 22.3055 42.5297 22.7113V22.7114ZM38.6222 17.8819L38.8518 18.1322H32.9187C32.6761 18.1322 32.4793 18.329 32.4793 18.5716V23.1509C32.4793 23.3936 32.6761 23.5904 32.9187 23.5904H42.5341V25.6485H41.008C40.7653 25.6485 40.5685 25.8453 40.5685 26.0879V28.365C40.5685 28.6077 40.7653 28.8045 41.008 28.8045H42.5341V30.9073H38.3776C37.6706 29.9909 36.5626 29.399 35.3183 29.399C34.074 29.399 32.966 29.9909 32.259 30.9073H29.1987V17.3239H37.3526C37.8553 17.3239 38.2825 17.5117 38.6223 17.882L38.6222 17.8819ZM14.4735 31.7862H31.7488C31.6137 32.1118 31.5222 32.4596 31.4809 32.8226H14.7414C14.7 32.4597 14.6086 32.1118 14.4735 31.7862ZM34.936 15.7079C35.0787 15.7079 35.1922 15.7549 35.2931 15.8558L35.8822 16.4449H29.1986V15.7079H34.936ZM21.0012 27.4696V21.6483H22.4929V23.3885C22.4929 23.5409 22.5719 23.6824 22.7016 23.7624C22.7721 23.8059 22.8522 23.8279 22.9323 23.8279C22.9997 23.8279 23.0672 23.8125 23.1295 23.7813L23.9119 23.3886L24.6942 23.7813C24.8303 23.8495 24.9922 23.8425 25.122 23.7624C25.2518 23.6825 25.3308 23.5409 25.3308 23.3885V21.6483H26.8225V27.4696H21.0012ZM16.6716 21.6483H17.7517V22.6762L17.4088 22.5041C17.2847 22.4419 17.1386 22.4419 17.0146 22.5041L16.6716 22.6762V21.6483ZM16.0014 23.7624C16.1311 23.8424 16.293 23.8495 16.4293 23.7813L17.2117 23.3886L17.9941 23.7813C18.0563 23.8125 18.1238 23.8279 18.1912 23.8279C18.2714 23.8279 18.3515 23.8059 18.422 23.7624C18.5517 23.6825 18.6307 23.5409 18.6307 23.3885V21.6483H20.1224V27.4696H14.3011V21.6483H15.7928V23.3885C15.7928 23.5409 15.8718 23.6825 16.0015 23.7624H16.0014ZM23.3718 21.6483H24.4519V22.6762L24.109 22.5041C23.985 22.4419 23.8388 22.4419 23.7148 22.5041L23.3719 22.6762V21.6482L23.3718 21.6483ZM23.3718 12.8321H24.4519V13.86L24.109 13.6879C23.985 13.6257 23.8387 13.6257 23.7148 13.6879L23.3718 13.86V12.8321ZM22.4929 12.8321V14.5722C22.4929 14.7246 22.5718 14.8661 22.7016 14.9461C22.8312 15.0261 22.9932 15.0332 23.1295 14.9649L23.912 14.5723L24.6943 14.9649C24.7565 14.9961 24.824 15.0116 24.8914 15.0116C24.9716 15.0116 25.0516 14.9896 25.1221 14.9461C25.2518 14.8661 25.3309 14.7246 25.3309 14.5722V12.8321H26.8225V20.7694H21.0013V12.8321H22.493H22.4929ZM16.6716 14.9482H17.7517V15.976L17.4088 15.8039C17.2847 15.7417 17.1386 15.7417 17.0146 15.8039L16.6716 15.976V14.9482ZM14.301 14.9482H15.7927V16.6883C15.7927 16.8407 15.8717 16.9823 16.0014 17.0623C16.1311 17.1423 16.293 17.1494 16.4293 17.0811L17.2117 16.6885L17.9941 17.0811C18.0563 17.1123 18.1238 17.1278 18.1912 17.1278C18.2714 17.1278 18.3515 17.1058 18.422 17.0623C18.5517 16.9823 18.6307 16.8407 18.6307 16.6883V14.9482H20.1224V20.7694H14.3011V14.9482H14.301ZM9.97145 21.6483H11.0515V22.6762L10.7087 22.5041C10.5847 22.4419 10.4385 22.4419 10.3145 22.5041L9.97153 22.6762L9.97145 21.6483ZM7.60086 21.6483H9.09254V23.3885C9.09254 23.5409 9.17155 23.6825 9.30128 23.7624C9.37177 23.8059 9.45184 23.8279 9.53208 23.8279C9.5994 23.8279 9.66699 23.8125 9.72913 23.7813L10.5115 23.3886L11.2938 23.7813C11.43 23.8495 11.5919 23.8425 11.7217 23.7624C11.8514 23.6825 11.9304 23.5409 11.9304 23.3885V21.6483H13.4222V27.4696H7.60086V21.6483ZM28.3197 28.3485V30.9072H13.9634C13.2564 29.9908 12.1484 29.3989 10.9041 29.3989C9.65987 29.3989 8.55184 29.9908 7.84484 30.9072H6.01224V29.749C6.01224 29.5064 5.81545 29.3096 5.57278 29.3096H3.97581V28.3485H28.3197ZM5.13333 30.9072H3.97581V30.1885H5.13333V30.9072ZM3.97581 31.7862H7.33473C7.19964 32.1117 7.10814 32.4595 7.06684 32.8225H3.97581V31.7862ZM10.9041 36.2461C9.25865 36.2461 7.91999 34.9074 7.91999 33.2619C7.91999 31.6164 9.25865 30.2778 10.9041 30.2778C12.5496 30.2778 13.8883 31.6164 13.8883 33.2619C13.8883 34.9074 12.5496 36.2461 10.9041 36.2461ZM35.3183 36.2461C33.6728 36.2461 32.3342 34.9074 32.3342 33.2619C32.3342 31.6164 33.6728 30.2778 35.3183 30.2778C36.9638 30.2778 38.3025 31.6164 38.3025 33.2619C38.3025 34.9074 36.9638 36.2461 35.3183 36.2461ZM44.0938 31.8479C44.0938 32.3852 43.6566 32.8225 43.1192 32.8225H39.1556C39.1143 32.4596 39.0228 32.1117 38.8877 31.7862H42.9737C43.2163 31.7862 43.4131 31.5894 43.4131 31.3467V29.7089H44.0938V31.8478V31.8479ZM32.0508 26.6325C32.0508 26.3898 32.2476 26.1931 32.4903 26.1931H34.3796C34.6223 26.1931 34.8191 26.3898 34.8191 26.6325C34.8191 26.8752 34.6223 27.072 34.3796 27.072H32.4903C32.2476 27.072 32.0508 26.8752 32.0508 26.6325ZM35.3183 31.1403C34.1484 31.1403 33.1966 32.0921 33.1966 33.262C33.1966 34.4319 34.1484 35.3837 35.3183 35.3837C36.4882 35.3837 37.44 34.4319 37.44 33.262C37.44 32.0921 36.4882 31.1403 35.3183 31.1403ZM35.3183 34.5048C34.633 34.5048 34.0755 33.9473 34.0755 33.262C34.0755 32.5767 34.633 32.0192 35.3183 32.0192C36.0036 32.0192 36.5611 32.5767 36.5611 33.262C36.5611 33.9473 36.0036 34.5048 35.3183 34.5048ZM10.9041 31.1403C9.73423 31.1403 8.78246 32.0921 8.78246 33.262C8.78246 34.4319 9.73423 35.3837 10.9041 35.3837C12.0741 35.3837 13.0258 34.4319 13.0258 33.262C13.0258 32.0921 12.0741 31.1403 10.9041 31.1403ZM10.9041 34.5048C10.2189 34.5048 9.66137 33.9473 9.66137 33.262C9.66137 32.5767 10.2189 32.0192 10.9041 32.0192C11.5894 32.0192 12.1469 32.5767 12.1469 33.262C12.1469 33.9473 11.5894 34.5048 10.9041 34.5048ZM1.4668 12.2003C1.22413 12.2003 1.02734 12.0035 1.02734 11.7608C1.02734 11.5181 1.22413 11.3213 1.4668 11.3213H5.23186C5.47452 11.3213 5.67131 11.5181 5.67131 11.7608C5.67131 12.0035 5.47452 12.2003 5.23186 12.2003H1.4668ZM3.16115 13.3294H6.07903C6.3217 13.3294 6.51849 13.5262 6.51849 13.7688C6.51849 14.0115 6.3217 14.2083 6.07903 14.2083H3.16115C2.91849 14.2083 2.7217 14.0115 2.7217 13.7688C2.7217 13.5262 2.91849 13.3294 3.16115 13.3294ZM7.39669 19.2911H2.37664C2.13397 19.2911 1.93719 19.0943 1.93719 18.8516C1.93719 18.609 2.13397 18.4122 2.37664 18.4122H7.39669C7.63936 18.4122 7.83614 18.609 7.83614 18.8516C7.83614 19.0943 7.63936 19.2911 7.39669 19.2911ZM5.48296 16.9379H1.87347C1.6308 16.9379 1.43401 16.7411 1.43401 16.4985C1.43401 16.2558 1.6308 16.059 1.87347 16.059H5.48296C5.72563 16.059 5.92241 16.2558 5.92241 16.4985C5.92241 16.7411 5.72563 16.9379 5.48296 16.9379Z" fill="#4D7B7D"/>
</svg>

<svg width="46" height="46" fill="none" xmlns="http://www.w3.org/2000/svg"><path d="M44.533 28.83h-1.12v-6.014c0-.672-.23-1.264-.685-1.76l-3.458-3.768a2.54 2.54 0 0 0-1.918-.843h-.227l-1.21-1.21a1.357 1.357 0 0 0-.979-.406h-5.737v-4.516a1.44 1.44 0 0 0-1.438-1.438H3.414a.44.44 0 0 0 0 .879H27.76a.56.56 0 0 1 .559.559V27.47H27.7V12.393a.44.44 0 0 0-.44-.44h-6.7a.44.44 0 0 0-.439.44v1.676h-6.26a.44.44 0 0 0-.44.44v6.26h-6.26a.44.44 0 0 0-.44.44v6.26H3.976v-6.904a.44.44 0 0 0-.88 0v12.697c0 .243.198.44.44.44h3.53a3.868 3.868 0 0 0 3.838 3.423c1.982 0 3.619-1.5 3.837-3.423h16.74a3.868 3.868 0 0 0 3.837 3.423c1.982 0 3.619-1.5 3.838-3.423h3.963a1.856 1.856 0 0 0 1.854-1.854V29.27a.44.44 0 0 0-.44-.44Zm-1.999-.904h-1.087v-1.399h1.087v1.398Zm-.004-5.215h-9.172v-3.7h6.3l2.423 2.64c.28.306.427.654.449 1.06Zm-3.908-4.83.23.251h-5.933a.44.44 0 0 0-.44.44v4.579c0 .243.197.44.44.44h9.615v2.057h-1.526a.44.44 0 0 0-.44.44v2.277c0 .243.197.44.44.44h1.526v2.102h-4.156a3.858 3.858 0 0 0-6.119 0h-3.06V17.324h8.154c.502 0 .93.188 1.27.558ZM14.474 31.787h17.275a3.831 3.831 0 0 0-.268 1.037H14.74a3.836 3.836 0 0 0-.268-1.037Zm20.462-16.078c.143 0 .256.047.357.148l.59.589h-6.684v-.737h5.737ZM21.001 27.47v-5.822h1.492v1.74a.44.44 0 0 0 .637.393l.782-.392.782.392a.44.44 0 0 0 .637-.392v-1.74h1.492v5.82H21Zm-4.33-5.822h1.08v1.028l-.342-.172a.44.44 0 0 0-.394 0l-.343.172v-1.028Zm-.67 2.114a.44.44 0 0 0 .428.02l.783-.393.782.392a.44.44 0 0 0 .637-.392v-1.74h1.491v5.82h-5.82v-5.82h1.49v1.74a.44.44 0 0 0 .21.373Zm7.37-2.114h1.08v1.028l-.342-.172a.44.44 0 0 0-.394 0l-.343.172v-1.028Zm0-8.816h1.08v1.028l-.342-.172a.44.44 0 0 0-.394 0l-.343.172v-1.028Zm-.878 0v1.74a.44.44 0 0 0 .637.393l.782-.393.782.393a.44.44 0 0 0 .637-.393v-1.74h1.492v7.937H21v-7.937h1.492Zm-5.821 2.116h1.08v1.028l-.343-.172a.44.44 0 0 0-.394 0l-.343.172v-1.028Zm-2.371 0h1.492v1.74a.44.44 0 0 0 .636.393l.783-.392.782.392a.44.44 0 0 0 .637-.393v-1.74h1.491v5.821h-5.82v-5.82H14.3Zm-4.33 6.7h1.08v1.028l-.342-.172a.44.44 0 0 0-.394 0l-.343.172v-1.028Zm-2.37 0h1.492v1.74a.44.44 0 0 0 .636.393l.783-.392.782.392a.44.44 0 0 0 .636-.392v-1.74h1.492v5.82H7.601v-5.82Zm20.719 6.7v2.56H13.963a3.858 3.858 0 0 0-6.118 0H6.012v-1.159a.44.44 0 0 0-.44-.44H3.977v-.96H28.32Zm-23.187 2.56H3.976v-.72h1.157v.72Zm-1.157.878h3.359a3.83 3.83 0 0 0-.268 1.036H3.976v-1.036Zm6.928 4.46a2.988 2.988 0 0 1-2.984-2.984 2.987 2.987 0 0 1 2.984-2.984 2.987 2.987 0 0 1 2.984 2.984 2.988 2.988 0 0 1-2.984 2.984Zm24.414 0a2.987 2.987 0 0 1-2.984-2.984 2.987 2.987 0 0 1 2.984-2.984 2.987 2.987 0 0 1 2.985 2.984 2.988 2.988 0 0 1-2.985 2.984Zm8.776-4.398a.976.976 0 0 1-.975.974h-3.963a3.83 3.83 0 0 0-.268-1.036h4.086a.44.44 0 0 0 .44-.44V29.71h.68v2.139ZM32.05 26.633a.44.44 0 0 1 .44-.44h1.889a.44.44 0 1 1 0 .879h-1.89a.44.44 0 0 1-.44-.44Zm3.267 4.507c-1.17 0-2.121.952-2.121 2.122s.951 2.122 2.121 2.122 2.122-.952 2.122-2.122-.952-2.122-2.122-2.122Zm0 3.365a1.244 1.244 0 0 1-1.242-1.243c0-.685.557-1.243 1.242-1.243.686 0 1.243.558 1.243 1.243s-.557 1.243-1.243 1.243ZM10.904 31.14c-1.17 0-2.122.952-2.122 2.122s.952 2.122 2.122 2.122 2.122-.952 2.122-2.122-.952-2.122-2.122-2.122Zm0 3.365a1.244 1.244 0 0 1-1.243-1.243c0-.685.558-1.243 1.243-1.243s1.243.558 1.243 1.243-.558 1.243-1.243 1.243ZM1.467 12.2a.44.44 0 0 1 0-.879h3.765a.44.44 0 0 1 0 .88H1.467Zm1.694 1.13H6.08a.44.44 0 0 1 0 .878H3.161a.44.44 0 0 1 0-.879Zm4.236 5.961h-5.02a.44.44 0 0 1 0-.879h5.02a.44.44 0 0 1 0 .88Zm-1.914-2.353h-3.61a.44.44 0 0 1 0-.879h3.61a.44.44 0 0 1 0 .879Z" fill="#4D7B7D"/></svg>
